packages/core/src/svgs/troy.svg

<svg width="24" height="24" viewBox="0 0 24 24" fill="none" xmlns="http://www.w3.org/2000/svg">
<g clip-path="url(#clip0_31_20033)">
<path d="M0 0H24V24H0V0Z" fill="url(#paint0_linear_31_20033)"/>
<path d="M17.5715 11.8199V10.4914C17.5715 10.4228 17.5929 10.2856 17.7857 10.2856C17.9786 10.2856 18 10.4228 18 10.4914C17.9957 10.8556 17.9915 11.5114 18 11.7085C18.0086 11.9056 18.2443 11.9828 18.3343 11.9999C19.1657 11.9999 20.8886 12.0128 21.1029 11.9999C21.3172 11.9828 21.4286 11.7985 21.4286 11.7085V10.4914C21.4286 10.3885 21.5057 10.2856 21.6472 10.2856C21.78 10.2856 21.8572 10.3928 21.8572 10.4914V11.7685C21.8573 11.9385 21.7919 12.102 21.6746 12.2249C21.5572 12.3478 21.397 12.4208 21.2272 12.4285H19.9286V14.3999C19.9286 14.4685 19.8772 14.5714 19.7143 14.5714C19.5686 14.5714 19.5 14.4899 19.5 14.3999V12.4285H18.2315C17.7386 12.4285 17.5886 12.0385 17.5715 11.8199ZM15.9686 10.2856H13.1486C12.5915 10.2856 12.4372 10.7785 12.4329 11.0228C12.4329 11.7514 12.4243 13.3242 12.4329 13.7871C12.4372 14.2499 12.9043 14.5714 13.1486 14.5714H15.9686C16.5257 14.5714 16.7143 14.0699 16.7143 13.7871V11.0228C16.7143 10.4871 16.2857 10.2856 15.9686 10.2856Z" fill="#82DEFF"/>
<path d="M15.8315 10.7144H13.3629C12.9129 10.7144 12.8658 10.9415 12.8615 11.1386C12.8615 11.7215 12.8529 13.3329 12.8615 13.7015C12.8615 14.0701 13.1272 14.1429 13.3243 14.1429H15.7972C16.2429 14.1429 16.2858 13.8986 16.2858 13.6715V11.2501C16.2858 10.8215 16.08 10.7144 15.8315 10.7144Z" fill="#111317"/>
<path d="M7.28566 10.8556V14.3314C7.28566 14.4685 7.33709 14.5714 7.49995 14.5714C7.68423 14.5714 7.71423 14.4299 7.71423 14.3314V11.0056C7.71423 10.8042 7.85138 10.7099 7.90709 10.7142H10.7871C11.0357 10.7142 11.1428 10.9242 11.1428 10.9756C11.1428 11.2328 11.1514 11.5285 11.1428 11.7342C11.1342 11.9485 10.9285 12.0085 10.8728 11.9999H9.59138C9.52709 11.9999 9.3728 12.0085 9.29995 12.1242C9.22709 12.2399 9.29138 12.3771 9.33423 12.4285L11.1428 14.4428C11.2285 14.5285 11.4299 14.6314 11.5285 14.4856C11.6314 14.3442 11.4985 14.2156 11.4171 14.1256L9.9428 12.4285H10.9714C11.1204 12.4216 11.2623 12.3625 11.3721 12.2613C11.4818 12.1602 11.5524 12.0237 11.5714 11.8756V10.9328C11.5585 10.4271 11.1299 10.2899 10.9242 10.2856H7.90709C7.44852 10.2856 7.26423 10.6542 7.28995 10.8556H7.28566ZM6.15852 10.2856H1.9328C1.86852 10.2856 1.71423 10.3285 1.71423 10.5042C1.71423 10.6414 1.85995 10.6971 1.9328 10.7142H3.85709V14.3785C3.85709 14.4642 3.93852 14.5714 4.07138 14.5714C4.20852 14.5714 4.28566 14.4814 4.28566 14.3785V10.7142H6.15852C6.24852 10.7185 6.42852 10.7056 6.42852 10.5128C6.42852 10.3242 6.24852 10.2899 6.15852 10.2856Z" fill="#82DEFF"/>
</g>
<defs>
<linearGradient id="paint0_linear_31_20033" x1="4.46571" y1="4.16143" x2="29.2071" y2="32.58" gradientUnits="userSpaceOnUse">
<stop stop-color="#1A1E21"/>
<stop offset="1" stop-color="#06060A"/>
</linearGradient>
<clipPath id="clip0_31_20033">
<rect width="24" height="24" fill="white"/>
</clipPath>
</defs>
</svg>

<svg xmlns="http://www.w3.org/2000/svg" width="24" height="24" fill="none" viewBox="0 0 24 24"><g clip-path="url(#a)"><path fill="url(#b)" d="M0 0h24v24H0z"/><path fill="#82DEFF" d="M17.572 11.82V10.49c0-.068.02-.205.214-.205.193 0 .214.137.214.205a38 38 0 0 0 0 1.218c.009.197.244.274.334.29.832 0 2.555.014 2.769 0 .214-.016.326-.2.326-.29V10.49c0-.102.077-.205.218-.205.133 0 .21.107.21.205v1.277a.66.66 0 0 1-.63.66H19.93V14.4c0 .069-.052.171-.215.171-.145 0-.214-.081-.214-.171v-1.972h-1.268c-.493 0-.643-.39-.66-.608m-1.603-1.534h-2.82c-.557 0-.712.492-.716.737 0 .728-.009 2.301 0 2.764.004.463.471.784.716.784h2.82c.557 0 .745-.501.745-.784v-2.764c0-.536-.428-.737-.745-.737"/><path fill="#111317" d="M15.832 10.714h-2.47c-.45 0-.496.227-.5.425 0 .583-.01 2.194 0 2.563 0 .368.265.44.462.44h2.473c.446 0 .489-.243.489-.47V11.25c0-.428-.206-.536-.455-.536"/><path fill="#82DEFF" d="M7.286 10.856v3.475c0 .138.051.24.214.24.184 0 .214-.141.214-.24v-3.325c0-.202.137-.296.193-.292h2.88c.249 0 .356.21.356.262 0 .257.008.552 0 .758a.274.274 0 0 1-.27.266H9.59c-.064 0-.218.008-.291.124s-.009.253.034.304l1.809 2.015c.085.085.287.188.385.043.103-.142-.03-.27-.11-.36l-1.475-1.697h1.028a.634.634 0 0 0 .6-.553v-.943c-.012-.506-.441-.643-.647-.647H7.907c-.458 0-.643.368-.617.57zm-1.127-.57H1.933c-.064 0-.219.043-.219.218 0 .137.146.193.219.21h1.924v3.665c0 .085.082.192.214.192.138 0 .215-.09.215-.192v-3.665h1.873c.09.005.27-.008.27-.201 0-.189-.18-.223-.27-.227"/></g><defs><linearGradient id="b" x1="4.466" x2="29.207" y1="4.161" y2="32.58" gradientUnits="userSpaceOnUse"><stop stop-color="#1A1E21"/><stop offset="1" stop-color="#06060A"/></linearGradient><clipPath id="a"><path fill="#fff" d="M0 0h24v24H0z"/></clipPath></defs></svg>
